icons/iotex/io1343t63p68pc9h76hmy0azvzy0l9msfetp2at70.svg

<svg height="40" viewBox="0 0 40 40" width="40" xmlns="http://www.w3.org/2000/svg"><path d="m22.0204035 37.4035149c-.2443031 0-.4421044-.4018665-.4421044-.8976155 0-.4957489.1978013-.8979253.4421044-.8979253.2446401 0 .4424414.4021764.4424414.8979253 0 .495749-.1978013.8976155-.4424414.8976155m-3.905143 0c-.2443031 0-.4424413-.4018665-.4424413-.8976155 0-.4957489.1981382-.8979253.4424413-.8979253s.4424414.4021764.4424414.8979253c0 .495749-.1981383.8976155-.4424414.8976155m1.8846721-4.3917161c-2.9060275 0-5.2614464 1.5643978-5.2614464 3.4941006s2.3554189 3.4941006 5.2614464 3.4941006c2.9056906 0 5.2614464-1.5643978 5.2614464-3.4941006s-2.3557558-3.4941006-5.2614464-3.4941006m1.1412156-28.25043995c.0121309-.00743624.0272946-.00929529.0411103-.00495749l1.3128344.41797833c.0121309.00402796.021903.01208388.0272945.02292839l.3632535.7426939c.010446.02168902.0003369.04678631-.0235879.05670129-.0057285.00247874-.0124679.00371812-.0188703.00371812h-.8252391c-.0155006 0-.0299903-.00681655-.0387515-.01890043l-.8508487-1.16067224c-.0141528-.01952011-.0084243-.04616662.0128048-.05948987m17.964197-2.74025234c-.0283055-.2825769-.0636873-.56577349-.1138958-.85082914h-1.3472053c-.0043806.02881541-.0097721.05701113-.0134788.08582654-.9984415 6.89338919-5.1337348 11.59928609-12.4085758 14.11645139-.1314183-2.6175544-6.1658734-4.0778449-7.0783876-5.99298511-.6274378-1.31776269.747062-2.29376844 1.4526768-2.3941576.6567541-.09388246 1.0732488.12982425 1.249484.67112014l2.6583547-.1459361.5445432.87809534 1.5716272-.87809534.1910618-1.27376496h-.8825239c-.4330062 0-1.2181458-1.53744144-1.4247083-2.12552364-.6719178 0-1.8078429-.80992985-3.4071016-2.43040924v.90195325c-.6456341-.44741343-1.2124174-.88924968-1.7027084-1.32674813-.4744535-.42324567-.8767954-.84184369-1.2056779-1.25610391 0 .42262598.0687418.84153385.2052146 1.25610391.2257697.6844434.6372098 1.3574226 1.2360052 2.0195573-1.6481193.2041866-3.2264858 1.74007882-3.7508109 4.0542969-.8744366 3.85909579 2.6233099 8.48753189-.1516364 7.87714099-6.97797056-2.2045336-11.12741667-6.85558831-12.44934919-13.95099519-.00539152-.02881541-.01179394-.05701113-.01684849-.08582654h-1.33473737c-.100417.54749275-.15466914 1.09808393-.17589824 1.65084401-.50107409 2.97356419-.75076871 6.14697717-.75076871 9.44649632 0 10.2223434 5.86832905 18.6110354 11.4461901 23.5930025-.0090981-.1081353-.0148266-.2168902-.0148266-.3265746 0-1.5321741.9135251-2.9218204 2.3968661-3.9452322-1.0503348-1.2012617-1.2090476-4.0230027-1.2090476-4.0230027s3.7225054 1.2148948 4.1895455 2.687579c.9863106-.2630568 2.0629291-.4096126 3.191104-.4096126 1.1285119 0 2.2044564.1465558 3.191441.4096126.4667032-1.4726842 4.1892085-2.687579 4.1892085-2.687579s-.1587128 2.821741-1.2090476 4.0230027c1.4830041 1.0234118 2.3968662 2.4130581 2.3968662 3.9452322 0 .1828074-.0141528.3631361-.0394255.5412958 5.5546102-4.9531517 11.4711259-13.4363458 11.4711259-23.8077237 0-3.59789805-.2982183-7.04521233-.8946548-10.24651119" fill="#06d9c2" fill-rule="evenodd"/></svg>

<?xml version="1.0" encoding="UTF-8"?>
<svg width="40px" height="40px" viewBox="0 0 40 40" version="1.1" xmlns="http://www.w3.org/2000/svg" xmlns:xlink="http://www.w3.org/1999/xlink">
    <!-- Generator: Sketch 50 (54983) - http://www.bohemiancoding.com/sketch -->
    <title>图形</title>
    <desc>Created with Sketch.</desc>
    <defs></defs>
    <g id="Page-1" stroke="none" stroke-width="1" fill="none" fill-rule="evenodd">
        <g id="图形" fill="#06D9C2">
            <path d="M22.0204035,37.4035149 C21.7761004,37.4035149 21.5782991,37.0016484 21.5782991,36.5058994 C21.5782991,36.0101505 21.7761004,35.6079741 22.0204035,35.6079741 C22.2650436,35.6079741 22.4628449,36.0101505 22.4628449,36.5058994 C22.4628449,37.0016484 22.2650436,37.4035149 22.0204035,37.4035149 M18.1152605,37.4035149 C17.8709574,37.4035149 17.6728192,37.0016484 17.6728192,36.5058994 C17.6728192,36.0101505 17.8709574,35.6079741 18.1152605,35.6079741 C18.3595636,35.6079741 18.5577019,36.0101505 18.5577019,36.5058994 C18.5577019,37.0016484 18.3595636,37.4035149 18.1152605,37.4035149 M19.9999326,33.0117988 C17.0939051,33.0117988 14.7384862,34.5761966 14.7384862,36.5058994 C14.7384862,38.4356022 17.0939051,40 19.9999326,40 C22.9056232,40 25.261379,38.4356022 25.261379,36.5058994 C25.261379,34.5761966 22.9056232,33.0117988 19.9999326,33.0117988 M21.1411482,4.76135885 C21.1532791,4.75392261 21.1684428,4.75206356 21.1822585,4.75640136 L22.4950929,5.17437969 C22.5072238,5.17840765 22.5169959,5.18646357 22.5223874,5.19730808 L22.8856409,5.94000198 C22.8960869,5.961691 22.8859778,5.98678829 22.862053,5.99670327 C22.8563245,5.99918201 22.8495851,6.00042139 22.8431827,6.00042139 L22.0179436,6.00042139 C22.002443,6.00042139 21.9879533,5.99360484 21.9791921,5.98152096 L21.1283434,4.82084872 C21.1141906,4.80132861 21.1199191,4.7746821 21.1411482,4.76135885 M39.1053452,2.02110651 C39.0770397,1.73852961 39.0416579,1.45533302 38.9914494,1.17027737 L37.6442441,1.17027737 C37.6398635,1.19909278 37.634472,1.2272885 37.6307653,1.25610391 C36.6323238,8.1494931 32.4970305,12.85539 25.2221895,15.3725553 C25.0907712,12.7550009 19.0563161,11.2947104 18.1438019,9.37957019 C17.5163641,8.0618075 18.8908639,7.08580175 19.5964787,6.98541259 C20.2532328,6.89153013 20.6697275,7.11523684 20.8459627,7.65653273 L23.5043174,7.51059663 L24.0488606,8.38869197 L25.6204878,7.51059663 L25.8115496,6.23683167 L24.9290257,6.23683167 C24.4960195,6.23683167 23.7108799,4.69939023 23.5043174,4.11130803 C22.8323996,4.11130803 21.6964745,3.30137818 20.0972158,1.68089879 L20.0972158,2.58285204 C19.4515817,2.13543861 18.8847984,1.69360236 18.3945074,1.25610391 C17.9200539,0.832858241 17.517712,0.414260219 17.1888295,0 C17.1888295,0.422625982 17.2575713,0.841533847 17.3940441,1.25610391 C17.6198138,1.94054731 18.0312539,2.61352651 18.6300493,3.27566121 C16.98193,3.47984781 15.4035635,5.01574003 14.8792384,7.32995811 C14.0048018,11.1890539 17.5025483,15.81749 14.727602,15.2070991 C7.74963144,13.0025655 3.60018533,8.35151079 2.27825281,1.25610391 C2.27286129,1.2272885 2.26645887,1.19909278 2.26140432,1.17027737 L0.926666947,1.17027737 C0.826249947,1.71777012 0.77199781,2.2683613 0.750768712,2.82112138 C0.249694621,5.79468557 0,8.96809855 0,12.2676177 C0,22.4899611 5.86832905,30.8786531 11.4461901,35.8606202 C11.437092,35.7524849 11.4313635,35.64373 11.4313635,35.5340456 C11.4313635,34.0018715 12.3448886,32.6122252 13.8282296,31.5888134 C12.7778948,30.3875517 12.619182,27.5658107 12.619182,27.5658107 C12.619182,27.5658107 16.3416874,28.7807055 16.8087275,30.2533897 C17.7950381,29.9903329 18.8716566,29.8437771 19.9998315,29.8437771 C21.1283434,29.8437771 22.2042879,29.9903329 23.1912725,30.2533897 C23.6579757,28.7807055 27.380481,27.5658107 27.380481,27.5658107 C27.380481,27.5658107 27.2217682,30.3875517 26.1714334,31.5888134 C27.6544375,32.6122252 28.5682996,34.0018715 28.5682996,35.5340456 C28.5682996,35.716853 28.5541468,35.8971817 28.5288741,36.0753414 C34.0834843,31.1221897 40,22.6389956 40,12.2676177 C40,8.66971965 39.7017817,5.22240537 39.1053452,2.02110651" id="Fill-33"></path>
        </g>
    </g>
</svg>
